res/icons/mobile/buffs.svg

<svg xmlns="http://www.w3.org/2000/svg" viewBox="0 0 27.64526 28.00002"><path d="M25.01831,5.5H20.90216a2.60168,2.60168,0,0,0,.79694-1.61816A3.84324,3.84324,0,0,0,18.57019.05469C17.57013-.12744,15.307-.058,13.69562,3.59485,12.08411-.0578,9.82038-.12659,8.82117.05469A3.84325,3.84325,0,0,0,5.69226,3.88184,2.60173,2.60173,0,0,0,6.4892,5.5H2.37305a2.50286,2.50286,0,0,0-2.5,2.5v5H1.44568V25.5a2.50286,2.50286,0,0,0,2.5,2.5h19.5a2.50286,2.50286,0,0,0,2.5-2.5V13h1.57263V8A2.50282,2.50282,0,0,0,25.01831,5.5ZM18.30017,1.53027A2.37314,2.37314,0,0,1,20.205,3.74609c-.0752.83106-1.061,1.30762-2.7041,1.30762H14.73035C15.60486,2.57715,16.90613,1.26953,18.30017,1.53027Zm-9.209,0a1.87771,1.87771,0,0,1,.34375-.03222c1.26221,0,2.42383,1.28515,3.22607,3.55566H9.89051c-1.64307,0-2.62891-.47656-2.7041-1.30762A2.37313,2.37313,0,0,1,9.09119,1.53027ZM11.19568,26.5h-7.25a1,1,0,0,1-1-1V13h8.25Zm0-15H1.37305V8a1,1,0,0,1,1-1h8.82263Zm3.5,15h-2V13h2Zm0-15h-2V7h2Zm9.75,14a1,1,0,0,1-1,1h-7.25V13h8.25Zm1.57263-14H16.19568V7h8.82263a1,1,0,0,1,1,1Z" transform="translate(0.12695 0.00002)"/></svg>

<svg xmlns="http://www.w3.org/2000/svg" x="0px" y="0px" viewBox="0 0 27.4 28"><path d="M25,5.5h-4.1c0.6-0.6,0.8-1.3,0.8-1.6c0.2-1.7-1.3-3.5-3.1-3.8c-1-0.2-3.3-0.1-4.9,3.5c-1.6-3.7-3.9-3.7-4.9-3.5 C7,0.4,5.5,2.2,5.7,3.9c0,0.3,0.2,1,0.8,1.6H2.4C1,5.5-0.1,6.6-0.1,8v3.5V13h1.5h0.1v12.5c0,1.4,1.1,2.5,2.5,2.5h19.5 c1.4,0,2.5-1.1,2.5-2.5V13H26h1.5v-1.5V8C27.5,6.6,26.4,5.5,25,5.5z M18.3,1.5c1.1,0.2,2,1.4,1.9,2.2c-0.1,0.8-1.1,1.3-2.7,1.3h-2.8 C15.6,2.6,16.9,1.3,18.3,1.5z M9.1,1.5c0.1,0,0.2,0,0.3,0c1.3,0,2.4,1.3,3.2,3.6H9.9c-1.6,0-2.6-0.5-2.7-1.3 C7.1,2.9,7.9,1.7,9.1,1.5z M11.2,26.5H3.9c-0.6,0-1-0.4-1-1V13h8.3V26.5z M11.2,11.5H1.4V8c0-0.6,0.4-1,1-1h8.8V11.5z M14.7,26.5h-2 V13h2V26.5z M14.7,11.5h-2V7h2V11.5z M24.4,25.5c0,0.6-0.4,1-1,1h-7.3V13h8.3V25.5z M26,11.5h-9.8V7H25c0.6,0,1,0.4,1,1V11.5z"/></svg>
